frontend/src/assets/images/Rules and help no background.svg

<svg width="28" height="24" viewBox="0 0 28 24" fill="none" xmlns="http://www.w3.org/2000/svg">
<path d="M14 6.05178C14 4.78973 13.4924 3.57937 12.5888 2.68696C11.6853 1.79456 10.4598 1.29321 9.18196 1.29321H1.95489V19.1378H10.3865C11.3448 19.1378 12.264 19.5138 12.9416 20.1831C13.6193 20.8524 14 21.7602 14 22.7067M14 6.05178V22.7067M14 6.05178C14 4.78973 14.5076 3.57937 15.4112 2.68696C16.3147 1.79456 17.5402 1.29321 18.818 1.29321H26.0451V19.1378H17.6135C16.6552 19.1378 15.736 19.5138 15.0584 20.1831C14.3807 20.8524 14 21.7602 14 22.7067" stroke="#153B61" stroke-width="2" stroke-linecap="round" stroke-linejoin="round"/>
</svg>

<svg xmlns="http://www.w3.org/2000/svg" width="28" height="24" fill="none"><path stroke="#153B61" stroke-linecap="round" stroke-linejoin="round" stroke-width="2" d="M14 6.052a4.73 4.73 0 0 0-1.411-3.365 4.85 4.85 0 0 0-3.407-1.394H1.955v17.845h8.432c.958 0 1.877.376 2.555 1.045A3.55 3.55 0 0 1 14 22.707m0-16.655v16.655m0-16.655c0-1.262.508-2.473 1.411-3.365a4.85 4.85 0 0 1 3.407-1.394h7.227v17.845h-8.432c-.958 0-1.877.376-2.555 1.045A3.55 3.55 0 0 0 14 22.707"/></svg>
